X: 236
T: No_90_Bird_Dance_Song_(m).krn
N: Derived from No_90_Bird_Dance_Song_(m).krn
%%abc-version 2.0
%%abcx-abcm2ps-target-version 5.9.1 (29 Sep 2008)
%%abc-creator hum2abc beta
%%abcx-conversion-date 2019/03/15 08:38:45
%%humdrum-veritas 1799036416
%%humdrum-veritas-data 511292371
%%linebreak <none>
%%barnumbers 0
L: 1/8
M: 2/4
K: E clef=bass
[K:clef=bass][M:2/4]B,B, B,/B,/B, | 
(B,3/A,/) G,G,/ z/ | 
B,B, B,/A,/G, | 
E,2B,,B,,/ z/ ]|:  
G,A, G,/E,/G, | 
E,2B,,B,, ||  
[M:3/4]E,E, B,,/ z/ E, E,/E,/G, | 
[M:2/4]E,2B,,B,,/ z/ :|]  



